tenants/vtwonen/icons/channel_facebook.svg

<svg fill="none" height="24" viewBox="0 0 24 24" width="24" xmlns="http://www.w3.org/2000/svg"><circle cx="12" cy="12" fill="#000" r="12"/><path d="m15.1742 5.32031h1.8258v-3.17969c-.3144-.04296-1.3977-.14062-2.6591-.14062-2.6326 0-4.4356 1.65625-4.4356 4.69922v2.80078h-2.9053v3.5547h2.9053v8.9453h3.5606v-8.9453h2.7879l.4432-3.5547h-3.2311v-2.44922c0-1.02734.2765-1.73047 1.7083-1.73047z" fill="#fff"/><path clip-rule="evenodd" d="m8.89972 15.7273c.01369-.056.06542-.2998.08063-.3558.03651-.1529.05477-.2952.11258-.4254.06847-.159.16584-.2937.26168-.427.06847-.0984.13693-.1922.22061-.2755.01825-.0182.03651-.0379.05477-.0575.09889-.0727.20386-.1439.32253-.1969.06998-.0302.13848-.056.20998-.0878.1034-.0454.2008-.0923.3195-.1272.1202-.0333.3027-.0317.4199.0031.0456.0151.0882.0212.1308.0393.1947.0848.3317.2256.4397.3967.0791.1226.1324.268.1826.4209.0137.0394.0152.0818.0243.1241.0061.0288.003.0818-.003.106-.0061.0288-.0016.05-.0092.0772-.0121.0424-.0228.0909-.0365.1302-.0228.0712-.0335.1393-.0578.209-.0502.1499-.0989.3028-.1582.4421-.0928.2256-.1811.4421-.3013.6389-.0243.0409-.041.0878-.0669.1272-.0152.0257-.0228.0529-.0365.0787-.0244.0499-.0517.1029-.0822.1514-.0197.0348-.0289.0711-.0517.106-.0472.0772-.0882.1589-.1354.2361-.0548.0848-.1171.1651-.1765.2438-.0593.0787-.1415.1438-.2099.212-.0685.0681-.1354.1377-.2039.2059-.0426.0408-.0882.0802-.1248.1271-.0136.0137-.02886.0273-.04255.0394-.04108.0409-.08672.0848-.12171.1302-.01369.0121-.02739.0258-.04108.0394-.02891.0287-.05933.059-.08368.0908-.01825.0167-.03803.0364-.05781.0545-.04564.0606-.10802.1075-.15366.1681-.01826.0166-.03651.0333-.05325.0499-.0213.0273-.04412.0545-.06998.0788-.01065.0091-.0213.0196-.03347.0302-.04108.0561-.0776.1015-.13389.1424-.01978.0212-.08367.0938-.10345.1135-.05173.0636-.04716.0712-.09585.1181-.05477.056-.1065.1181-.16127.1726-.01521.0167-.0502.0545-.06998.0515-.03347-.0212-.05781-.0576-.08672-.0878-.05325-.056-.12323-.0969-.20843-.1696-.03043-.0288-.05934-.056-.08824-.0833-.07607-.0999-.18257-.1726-.26016-.2725-.02282-.0318-.05934-.0545-.08368-.0893-.0289-.0273-.05933-.056-.08824-.0848-.03347-.0424-.07607-.0833-.1141-.1226-.0213-.0182-.02587-.0258-.04565-.0439-.01065-.0167-.02586-.0364-.03499-.05-.02282-.0333-.05781-.0621-.08215-.0939-.07912-.106-.1704-.1983-.24951-.3028-.01369-.0197-.03652-.0348-.05173-.0545-.06238-.0832-.13692-.1589-.19626-.2437-.05477-.0788-.10498-.1635-.1567-.2453-.01065-.0212-.01674-.0439-.03043-.0651-.02739-.0424-.05325-.0939-.07455-.1408-.06238-.1393-.11867-.2801-.17952-.4179-.08368-.1907-.17192-.3724-.2343-.5859-.0213-.0742-.03195-.1968-.02434-.2801.00304-.0424-.00304-.0848.00608-.1211 0-.0182.00001-.0363.00153-.0545.01065-.053.01977-.109.0289-.1635.0426-.1514.08368-.2922.14301-.427.06086-.1362.14606-.2573.23126-.3709.02434-.0348.0502-.0681.07759-.0969.12323-.1257.24494-.212.4412-.2665.05477-.0151.1491-.0318.21604-.0151.03803.0076.07455.0136.11258.0212.13389.0439.24647.1014.34992.1756.18105.1257.31037.2968.42904.4845.05629.0878.11867.1802.16279.2816.04868.106.08672.2195.12475.3346.02891.0833.03651.1726.05933.2619" fill="#e40047" fill-rule="evenodd"/></svg>

<svg width="24" height="24" viewBox="0 0 24 24" fill="none" xmlns="http://www.w3.org/2000/svg">
<circle cx="12" cy="12" r="12" fill="black"/>
<path d="M15.1742 5.32031H17V2.14062C16.6856 2.09766 15.6023 2 14.3409 2C11.7083 2 9.9053 3.65625 9.9053 6.69922V9.5H7V13.0547H9.9053V22H13.4659V13.0547H16.2538L16.697 9.5H13.4659V7.05078C13.4659 6.02344 13.7424 5.32031 15.1742 5.32031Z" fill="white"/>
<path fill-rule="evenodd" clip-rule="evenodd" d="M8.89972 15.7273C8.91341 15.6713 8.96514 15.4275 8.98035 15.3715C9.01686 15.2186 9.03512 15.0763 9.09293 14.9461C9.1614 14.7871 9.25877 14.6524 9.35461 14.5191C9.42308 14.4207 9.49154 14.3269 9.57522 14.2436C9.59347 14.2254 9.61173 14.2057 9.62999 14.1861C9.72888 14.1134 9.83385 14.0422 9.95252 13.9892C10.0225 13.959 10.091 13.9332 10.1625 13.9014C10.2659 13.856 10.3633 13.8091 10.482 13.7742C10.6022 13.7409 10.7847 13.7425 10.9019 13.7773C10.9475 13.7924 10.9901 13.7985 11.0327 13.8166C11.2274 13.9014 11.3644 14.0422 11.4724 14.2133C11.5515 14.3359 11.6048 14.4813 11.655 14.6342C11.6687 14.6736 11.6702 14.716 11.6793 14.7583C11.6854 14.7871 11.6823 14.8401 11.6763 14.8643C11.6702 14.8931 11.6747 14.9143 11.6671 14.9415C11.655 14.9839 11.6443 15.0324 11.6306 15.0717C11.6078 15.1429 11.5971 15.211 11.5728 15.2807C11.5226 15.4306 11.4739 15.5835 11.4146 15.7228C11.3218 15.9484 11.2335 16.1649 11.1133 16.3617C11.089 16.4026 11.0723 16.4495 11.0464 16.4889C11.0312 16.5146 11.0236 16.5418 11.0099 16.5676C10.9855 16.6175 10.9582 16.6705 10.9277 16.719C10.908 16.7538 10.8988 16.7901 10.876 16.825C10.8288 16.9022 10.7878 16.9839 10.7406 17.0611C10.6858 17.1459 10.6235 17.2262 10.5641 17.3049C10.5048 17.3836 10.4226 17.4487 10.3542 17.5169C10.2857 17.585 10.2188 17.6546 10.1503 17.7228C10.1077 17.7636 10.0621 17.803 10.0255 17.8499C10.0119 17.8636 9.99664 17.8772 9.98295 17.8893C9.94187 17.9302 9.89623 17.9741 9.86124 18.0195C9.84755 18.0316 9.83385 18.0453 9.82016 18.0589C9.79125 18.0876 9.76083 18.1179 9.73648 18.1497C9.71823 18.1664 9.69845 18.1861 9.67867 18.2042C9.63303 18.2648 9.57065 18.3117 9.52501 18.3723C9.50675 18.3889 9.4885 18.4056 9.47176 18.4222C9.45046 18.4495 9.42764 18.4767 9.40178 18.501C9.39113 18.5101 9.38048 18.5206 9.36831 18.5312C9.32723 18.5873 9.29071 18.6327 9.23442 18.6736C9.21464 18.6948 9.15075 18.7674 9.13097 18.7871C9.07924 18.8507 9.08381 18.8583 9.03512 18.9052C8.98035 18.9612 8.92862 19.0233 8.87385 19.0778C8.85864 19.0945 8.82365 19.1323 8.80387 19.1293C8.7704 19.1081 8.74606 19.0717 8.71715 19.0415C8.6639 18.9855 8.59392 18.9446 8.50872 18.8719C8.47829 18.8431 8.44938 18.8159 8.42048 18.7886C8.34441 18.6887 8.23791 18.616 8.16032 18.5161C8.1375 18.4843 8.10098 18.4616 8.07664 18.4268C8.04774 18.3995 8.01731 18.3708 7.9884 18.342C7.95493 18.2996 7.91233 18.2587 7.8743 18.2194C7.853 18.2012 7.84843 18.1936 7.82865 18.1755C7.818 18.1588 7.80279 18.1391 7.79366 18.1255C7.77084 18.0922 7.73585 18.0634 7.71151 18.0316C7.63239 17.9256 7.54111 17.8333 7.462 17.7288C7.44831 17.7091 7.42548 17.694 7.41027 17.6743C7.34789 17.5911 7.27335 17.5154 7.21401 17.4306C7.15924 17.3518 7.10903 17.2671 7.05731 17.1853C7.04666 17.1641 7.04057 17.1414 7.02688 17.1202C6.99949 17.0778 6.97363 17.0263 6.95233 16.9794C6.88995 16.8401 6.83366 16.6993 6.77281 16.5615C6.68913 16.3708 6.60089 16.1891 6.53851 15.9756C6.51721 15.9014 6.50656 15.7788 6.51417 15.6955C6.51721 15.6531 6.51113 15.6107 6.52025 15.5744C6.52025 15.5562 6.52026 15.5381 6.52178 15.5199C6.53243 15.4669 6.54155 15.4109 6.55068 15.3564C6.59328 15.205 6.63436 15.0642 6.69369 14.9294C6.75455 14.7932 6.83975 14.6721 6.92495 14.5585C6.94929 14.5237 6.97515 14.4904 7.00254 14.4616C7.12577 14.3359 7.24748 14.2496 7.44374 14.1951C7.49851 14.18 7.59284 14.1633 7.65978 14.18C7.69781 14.1876 7.73433 14.1936 7.77236 14.2012C7.90625 14.2451 8.01883 14.3026 8.12228 14.3768C8.30333 14.5025 8.43265 14.6736 8.55132 14.8613C8.60761 14.9491 8.66999 15.0415 8.71411 15.1429C8.76279 15.2489 8.80083 15.3624 8.83886 15.4775C8.86777 15.5608 8.87537 15.6501 8.89819 15.7394" fill="#E40047"/>
</svg>
